icons/NestJS-Light.svg

<svg xmlns="http://www.w3.org/2000/svg" width="256" height="256" fill="none" viewBox="0 0 256 256"><rect width="256" height="256" fill="#F4F2ED" rx="60"/><path fill="#E0234E" d="M146.728 18C145.172 18 143.727 18.3422 142.393 18.7985C145.228 20.7379 146.784 23.3046 147.562 26.2136C147.618 26.6129 147.729 26.8981 147.784 27.2973C147.84 27.6396 147.896 27.9818 147.896 28.3241C148.118 33.3435 146.617 33.9709 145.561 36.9369C143.949 40.7586 144.394 44.8654 146.339 48.1736C146.506 48.5729 146.728 49.0292 147.006 49.4285C144.894 34.9976 156.622 32.8301 158.79 28.3241C158.956 24.3884 155.788 21.7646 153.287 19.9393C150.897 18.4563 148.729 18 146.728 18V18ZM164.404 21.2512C164.181 22.5631 164.348 22.2209 164.293 22.9054C164.237 23.3617 164.237 23.9321 164.181 24.3884C164.07 24.8447 163.959 25.301 163.792 25.7573C163.681 26.2136 163.514 26.6699 163.348 27.1262C163.125 27.5826 162.959 27.9818 162.736 28.4381C162.57 28.6664 162.458 28.8944 162.292 29.1226C162.181 29.2937 162.069 29.4648 161.958 29.636C161.68 30.0353 161.402 30.4345 161.124 30.7767C160.791 31.119 160.513 31.5182 160.124 31.8035C160.124 31.8606 160.124 31.8606 160.124 31.8606C159.79 32.1458 159.457 32.488 159.068 32.7732C157.901 33.6858 156.567 34.3703 155.344 35.2259C154.955 35.511 154.566 35.7392 154.232 36.0814C153.843 36.3666 153.51 36.6518 153.176 36.9941C152.787 37.3363 152.509 37.6785 152.176 38.0778C151.898 38.4201 151.564 38.8193 151.342 39.2186C151.064 39.6179 150.786 40.0171 150.564 40.4164C150.341 40.8727 150.175 41.272 149.952 41.7283C149.786 42.1846 149.619 42.5839 149.508 43.0402C149.341 43.5535 149.23 44.0099 149.119 44.4662C149.063 44.6944 149.063 44.9795 149.007 45.2077C148.952 45.4359 148.952 45.664 148.896 45.8922C148.896 46.3485 148.841 46.8618 148.841 47.3181C148.841 47.6604 148.841 48.0026 148.896 48.3448C148.896 48.8011 148.952 49.2574 149.063 49.7708C149.119 50.2271 149.23 50.6834 149.341 51.1397C149.508 51.596 149.619 52.0524 149.786 52.5087C149.897 52.7939 150.064 53.0791 150.175 53.3072L137.391 48.2307C135.223 47.6033 133.111 47.0329 130.943 46.5196C129.776 46.2344 128.609 45.9492 127.441 45.664C124.106 44.9795 120.716 44.4662 117.325 44.124C117.214 44.124 117.159 44.0668 117.047 44.0668C113.712 43.7246 110.433 43.5535 107.098 43.5535C104.652 43.5535 102.207 43.6675 99.8168 43.8387C96.4262 44.0669 93.0357 44.5231 89.6451 45.0935C88.8114 45.2075 87.9776 45.3787 87.1439 45.5499C85.4208 45.8921 83.7533 46.2914 82.1414 46.6906C81.3077 46.9189 80.474 47.1469 79.6402 47.3751C78.8065 47.7173 78.0283 48.1166 77.2501 48.4588C76.6387 48.744 76.0273 49.0292 75.4159 49.3144C75.3048 49.3715 75.1935 49.3715 75.138 49.4284C74.5822 49.7136 74.0819 49.9417 73.5817 50.227C73.415 50.2841 73.3038 50.3409 73.1926 50.3981C72.5812 50.6833 71.9698 51.0255 71.4696 51.3107C71.0805 51.4818 70.6914 51.71 70.3579 51.8811C70.1912 51.9951 69.9688 52.1093 69.8577 52.1663C69.3574 52.4515 68.8572 52.7367 68.4125 53.0219C67.9123 53.3071 67.4676 53.5922 67.0785 53.8774C66.6894 54.1627 66.3004 54.3908 65.9669 54.676C65.9112 54.7331 65.8558 54.7331 65.8001 54.79C65.4666 55.0182 65.0775 55.3033 64.744 55.5885C64.744 55.5885 64.6884 55.6456 64.633 55.7025C64.3551 55.9308 64.0771 56.1588 63.7992 56.387C63.6881 56.4441 63.5768 56.5581 63.4657 56.6152C63.1878 56.8435 62.9099 57.1286 62.632 57.3567C62.5763 57.4707 62.4652 57.5279 62.4096 57.585C62.0761 57.9272 61.7426 58.2124 61.4091 58.5547C61.3534 58.5547 61.3534 58.6118 61.298 58.6686C60.9645 58.9538 60.631 59.2961 60.2975 59.6383C60.2418 59.6954 60.2418 59.7523 60.1864 59.7523C59.9085 60.0375 59.6306 60.3227 59.3527 60.6649C59.2416 60.7789 59.0748 60.8932 58.9636 61.0071C58.6857 61.3494 58.3522 61.6916 58.0187 62.0339C57.963 62.1478 57.852 62.205 57.7963 62.319C57.3516 62.7754 56.9625 63.2317 56.5179 63.688C56.4622 63.7451 56.4068 63.802 56.3511 63.8591C55.4618 64.8288 54.5169 65.7984 53.5164 66.654C52.5159 67.5666 51.4599 68.4222 50.4038 69.1637C49.2921 69.9623 48.236 70.6467 47.0688 71.3312C45.9571 71.9586 44.7899 72.529 43.5671 73.0424C42.3998 73.5557 41.177 74.0121 39.9542 74.4113C37.6197 74.9247 35.2297 75.8943 33.1731 76.0654C32.7284 76.0654 32.2282 76.1794 31.7835 76.2365C31.2833 76.3505 30.8386 76.4648 30.394 76.5788C29.9493 76.7499 29.5046 76.921 29.06 77.0921C28.6153 77.2633 28.1707 77.4914 27.726 77.7196C27.3369 78.0048 26.8923 78.2329 26.5032 78.5181C26.1141 78.8033 25.725 79.1455 25.3915 79.4878C25.0025 79.773 24.6134 80.1723 24.2799 80.5145C23.9464 80.9138 23.6129 81.256 23.335 81.6553C23.0571 82.1116 22.7236 82.5109 22.5012 82.9672C22.2233 83.3665 21.9454 83.8227 21.7231 84.279C21.5006 84.7924 21.2784 85.2487 21.1116 85.7621C20.9449 86.2184 20.7781 86.7317 20.6114 87.2451C20.5003 87.7014 20.389 88.1577 20.3335 88.614C20.3335 88.6712 20.2778 88.728 20.2778 88.7851C20.1667 89.2985 20.1667 89.983 20.1111 90.3252C20.0554 90.7245 20 91.0667 20 91.466C20 91.6943 20 91.9793 20.0557 92.2075C20.1113 92.6068 20.1667 92.949 20.2781 93.2913C20.3892 93.6335 20.5005 93.9757 20.6671 94.318C20.6671 94.3751 20.6671 94.3751 20.6671 94.3751C20.8339 94.7173 21.0562 95.0595 21.2786 95.4018C21.501 95.744 21.7232 96.0862 22.0011 96.4285C22.2791 96.7137 22.6126 97.0559 22.9461 97.3411C23.2795 97.6833 23.6131 97.9685 24.0021 98.2537C25.3361 99.4515 25.6696 99.8508 27.3927 100.763C27.6706 100.935 27.9485 101.049 28.282 101.22C28.3377 101.22 28.3931 101.277 28.4488 101.277C28.4488 101.391 28.4488 101.448 28.5044 101.562C28.5601 102.018 28.6712 102.475 28.7823 102.931C28.8934 103.444 29.0603 103.901 29.227 104.3C29.3938 104.642 29.5049 104.984 29.6717 105.327C29.7274 105.441 29.7828 105.555 29.8384 105.612C30.0609 106.068 30.2831 106.467 30.5054 106.867C30.7833 107.266 31.0612 107.665 31.3392 108.065C31.6171 108.407 31.9506 108.806 32.2841 109.148C32.6176 109.491 32.9511 109.776 33.3401 110.118C33.3401 110.118 33.3958 110.175 33.4512 110.175C33.7847 110.46 34.1182 110.746 34.4517 110.974C34.8408 111.259 35.2299 111.487 35.6745 111.715C36.0636 111.943 36.5083 112.171 36.9529 112.343C37.2864 112.514 37.6755 112.628 38.0646 112.742C38.1203 112.799 38.1757 112.799 38.287 112.856C38.5094 112.913 38.7872 112.97 39.0096 113.027C38.8428 116.107 38.7872 119.016 39.232 120.043C39.7322 121.184 42.1779 117.704 44.6235 113.711C44.29 117.647 44.0677 122.267 44.6235 123.636C45.2349 125.062 48.5699 120.613 51.4602 115.708C90.8684 106.353 126.83 134.303 130.61 173.774C129.887 167.613 122.495 164.191 119.104 165.047C117.437 169.267 114.602 174.686 110.044 178.051C110.434 174.287 110.267 170.408 109.489 166.644C108.266 171.891 105.876 176.797 102.596 181.017C97.316 181.417 92.0356 178.793 89.2565 174.857C89.034 174.686 88.9786 174.344 88.8118 174.116C88.6451 173.716 88.4783 173.317 88.3671 172.918C88.2004 172.519 88.0892 172.119 88.0336 171.72C87.978 171.321 87.978 170.922 87.978 170.465C87.978 170.18 87.978 169.895 87.978 169.61C88.0336 169.21 88.1447 168.811 88.2559 168.412C88.3669 168.013 88.4783 167.613 88.645 167.214C88.8674 166.815 89.034 166.416 89.312 166.016C90.2569 163.278 90.2569 161.054 88.5338 159.742C88.2003 159.514 87.8668 159.343 87.4777 159.172C87.2553 159.114 86.9775 159 86.7551 158.943C86.5884 158.886 86.4772 158.829 86.3105 158.772C85.9214 158.658 85.5323 158.544 85.1432 158.487C84.7542 158.373 84.3651 158.316 83.976 158.316C83.5869 158.259 83.1423 158.202 82.7532 158.202C82.4753 158.202 82.1973 158.259 81.9194 158.259C81.4748 158.259 81.0857 158.316 80.6966 158.43C80.3075 158.487 79.9185 158.544 79.5294 158.658C79.1403 158.772 78.7512 158.887 78.3621 159.058C77.9731 159.229 77.6396 159.4 77.2505 159.571C76.917 159.742 76.5835 159.97 76.1944 160.141C63.2436 168.811 70.9696 189.117 79.8073 194.992C76.4723 195.62 73.0818 196.361 72.1369 197.103C72.0812 197.16 72.0258 197.217 72.0258 197.217C74.4159 198.7 76.9171 199.955 79.5295 201.038C83.0868 202.236 86.8664 203.32 88.5339 203.776V203.833C93.1472 204.803 97.8162 205.145 102.541 204.86C127.164 203.092 147.34 183.87 151.009 158.544C151.12 159.058 151.231 159.514 151.342 160.027C151.509 161.054 151.731 162.138 151.843 163.221C151.843 163.221 151.843 163.221 151.843 163.279C151.954 163.792 152.009 164.305 152.065 164.762C152.065 164.876 152.065 164.933 152.065 164.99C152.121 165.503 152.176 166.017 152.176 166.473C152.232 167.1 152.287 167.728 152.287 168.355C152.287 168.64 152.287 168.926 152.287 169.268C152.287 169.553 152.343 169.895 152.343 170.18C152.343 170.523 152.287 170.865 152.287 171.207C152.287 171.492 152.287 171.778 152.287 172.006C152.287 172.405 152.232 172.747 152.232 173.147C152.232 173.375 152.232 173.603 152.176 173.888C152.176 174.287 152.12 174.687 152.12 175.143C152.064 175.314 152.064 175.485 152.064 175.656C152.009 176.113 151.953 176.512 151.898 176.968C151.898 177.139 151.898 177.31 151.842 177.482C151.786 178.052 151.675 178.565 151.62 179.136V179.193V179.25C151.509 179.763 151.397 180.334 151.286 180.847C151.286 180.904 151.286 180.961 151.286 181.018C151.175 181.531 151.064 182.045 150.953 182.558C150.953 182.615 150.897 182.729 150.897 182.786C150.786 183.3 150.675 183.813 150.508 184.327C150.508 184.384 150.508 184.44 150.508 184.498C150.341 185.068 150.174 185.581 150.063 186.095C150.008 186.152 150.008 186.209 150.008 186.209C149.841 186.779 149.674 187.349 149.507 187.92C149.285 188.49 149.118 189.004 148.896 189.574C148.674 190.144 148.507 190.715 148.285 191.228C148.062 191.799 147.84 192.312 147.618 192.882H147.562C147.339 193.396 147.117 193.966 146.839 194.479C146.783 194.65 146.728 194.765 146.672 194.879C146.617 194.936 146.617 194.993 146.561 195.05C142.948 202.522 137.613 209.081 130.943 214.215C130.498 214.5 130.053 214.842 129.609 215.185C129.498 215.298 129.331 215.356 129.22 215.47C128.83 215.755 128.441 216.04 127.997 216.325L128.163 216.668H128.219C128.997 216.554 129.775 216.439 130.554 216.325H130.609C132.054 216.097 133.5 215.812 134.945 215.527C135.334 215.47 135.778 215.356 136.168 215.242C136.445 215.184 136.668 215.128 136.946 215.07C137.335 215.013 137.724 214.899 138.113 214.842C138.446 214.728 138.78 214.671 139.113 214.557C144.672 213.188 150.063 211.306 155.232 209.081C146.395 221.459 134.556 231.441 120.716 238C127.108 237.544 133.5 236.46 139.669 234.635C162.069 227.847 180.912 212.389 192.195 191.57C189.916 204.746 184.802 217.295 177.243 228.246C182.635 224.596 187.582 220.375 192.084 215.584C204.534 202.237 212.705 185.296 215.484 167.101C217.374 176.113 217.93 185.41 217.096 194.593C257.227 137.155 220.431 77.6063 205.035 61.9206C204.979 61.8066 204.924 61.7495 204.924 61.6354C204.868 61.6925 204.868 61.6925 204.868 61.7494C204.868 61.6923 204.868 61.6923 204.812 61.6354C204.812 62.3199 204.756 63.0043 204.701 63.6888C204.534 65.0007 204.368 66.2555 204.145 67.5104C203.867 68.7653 203.534 70.0201 203.2 71.275C202.811 72.4728 202.367 73.7276 201.866 74.9255C201.366 76.0662 200.81 77.2641 200.199 78.4049C199.587 79.4886 198.92 80.6294 198.198 81.6561C197.475 82.7398 196.697 83.7665 195.919 84.7362C195.085 85.7629 194.196 86.6755 193.307 87.5881C192.751 88.1015 192.25 88.5578 191.695 89.0141C191.25 89.4134 190.861 89.7556 190.416 90.1549C189.416 90.9534 188.415 91.6949 187.304 92.3794C186.248 93.0639 185.136 93.7483 184.024 94.3187C182.857 94.8891 181.69 95.4025 180.523 95.9158C179.355 96.3721 178.132 96.7714 176.91 97.1137C175.687 97.4559 174.408 97.7411 173.186 97.9692C171.907 98.1975 170.629 98.3115 169.406 98.4256C168.517 98.4827 167.627 98.5396 166.738 98.5396C165.46 98.5396 164.181 98.4256 162.958 98.3113C161.68 98.1973 160.402 98.0261 159.179 97.7409C157.9 97.5126 156.678 97.1705 155.455 96.7712H155.399C156.622 96.6573 157.845 96.543 159.068 96.3149C160.346 96.0867 161.569 95.8016 162.792 95.4593C164.014 95.1171 165.237 94.7178 166.404 94.2615C167.627 93.8052 168.794 93.2348 169.906 92.6644C171.073 92.094 172.129 91.4666 173.241 90.7821C174.297 90.0406 175.353 89.2991 176.354 88.5006C177.354 87.702 178.299 86.8465 179.188 85.9338C180.133 85.0782 180.967 84.1086 181.801 83.1389C182.635 82.1122 183.413 81.0855 184.135 80.0588C184.246 79.8877 184.358 79.6595 184.469 79.4884C185.025 78.5758 185.58 77.6632 186.081 76.7505C186.692 75.6097 187.248 74.469 187.748 73.2712C188.248 72.0733 188.693 70.8755 189.082 69.6207C189.471 68.4228 189.749 67.168 190.027 65.9131C190.25 64.6012 190.472 63.3464 190.583 62.0915C190.694 60.7796 190.805 59.4677 190.805 58.2129C190.805 57.3002 190.75 56.3876 190.694 55.475C190.583 54.1631 190.416 52.9082 190.25 51.6534C190.027 50.3415 189.749 49.0866 189.416 47.8318C189.027 46.634 188.638 45.3791 188.193 44.1813C187.748 42.9835 187.193 41.7856 186.637 40.6448C186.025 39.5041 185.414 38.3633 184.747 37.2796C184.024 36.1958 183.302 35.1691 182.524 34.1424C181.69 33.1727 180.856 32.2031 179.967 31.2334C179.522 30.7771 179.022 30.2638 178.522 29.8075C176.02 27.8111 173.408 25.9288 170.796 24.2176C170.407 23.9894 170.073 23.8184 169.684 23.6472C167.85 22.4494 166.127 21.822 164.404 21.2516L164.404 21.2512Z"/></svg>

<svg xmlns="http://www.w3.org/2000/svg" width="256" height="256" fill="none" viewBox="0 0 256 256"><rect width="256" height="256" fill="#F4F2ED" rx="60"/><path fill="#E0234E" d="M146.73 18c-1.56 0-3 .34-4.34.8a12.5 12.5 0 0 1 5.17 7.41c.06.4.17.69.22 1.09q.1.51.12 1.02c.22 5.02-1.28 5.65-2.34 8.62a12.5 12.5 0 0 0 .78 11.23 7 7 0 0 0 .67 1.26c-2.12-14.43 9.61-16.6 11.78-21.1.17-3.94-3-6.57-5.5-8.4a12 12 0 0 0-6.56-1.93m17.67 3.25c-.22 1.31-.05.97-.1 1.66-.06.45-.06 1.02-.12 1.48q-.15.68-.39 1.37c-.1.45-.28.91-.44 1.37l-.61 1.3c-.17.24-.28.46-.45.7l-.33.5q-.42.61-.84 1.15c-.33.34-.6.74-1 1.02v.06c-.33.29-.66.63-1.05.91-1.17.92-2.5 1.6-3.73 2.46-.38.28-.77.5-1.1.85q-.58.42-1.06.91c-.4.35-.67.69-1 1.09-.28.34-.62.74-.84 1.14q-.43.6-.78 1.2c-.22.45-.38.85-.6 1.3-.17.46-.34.86-.45 1.32q-.24.75-.4 1.43c-.05.22-.05.51-.1.74s-.06.45-.11.68c0 .46-.06.97-.06 1.43q-.01.51.06 1.02 0 .68.16 1.43.1.68.28 1.37c.17.46.28.91.45 1.37.1.28.27.57.39.8l-12.79-5.08c-2.17-.63-4.28-1.2-6.45-1.71l-3.5-.86a101 101 0 0 0-10.11-1.54c-.12 0-.17-.05-.28-.05a97 97 0 0 0-17.23-.23 103 103 0 0 0-17.68 2.85l-2.5.69c-.83.34-1.61.74-2.39 1.08l-1.83.85c-.12.06-.23.06-.28.12-.56.28-1.06.51-1.56.8q-.23.08-.39.17c-.6.28-1.22.63-1.72.91-.39.17-.78.4-1.11.57-.17.12-.4.23-.5.29q-.76.42-1.45.85-.75.43-1.33.86c-.4.28-.78.51-1.11.8-.06.05-.11.05-.17.11-.33.23-.72.51-1.06.8l-.1.11-.84.69c-.11.05-.22.17-.33.23-.28.22-.56.5-.84.74-.05.11-.16.17-.22.23-.33.34-.67.62-1 .96-.06 0-.06.06-.11.12-.34.28-.67.63-1 .97-.06.06-.06.11-.11.11q-.42.42-.84.91c-.1.12-.28.23-.39.35q-.42.51-.94 1.02c-.06.12-.17.17-.22.29-.45.46-.84.91-1.28 1.37l-.17.17c-.89.97-1.83 1.94-2.83 2.8a42 42 0 0 1-6.45 4.68q-1.67.93-3.5 1.7a39 39 0 0 1-3.62 1.37c-2.33.51-4.72 1.48-6.78 1.66-.44 0-.94.1-1.39.17q-.73.16-1.39.34l-1.33.51q-.67.27-1.33.63c-.4.28-.84.51-1.23.8q-.6.44-1.1.97c-.4.28-.79.68-1.12 1.02-.33.4-.67.75-.95 1.15-.27.45-.6.85-.83 1.3q-.43.62-.78 1.32c-.22.51-.44.97-.6 1.48q-.27.7-.5 1.49-.19.67-.29 1.36c0 .06-.05.12-.05.18-.11.5-.11 1.2-.17 1.54-.05.4-.11.74-.11 1.14a6 6 0 0 0 .67 2.85v.06c.16.34.39.68.6 1.02q.33.52.73 1.03c.28.28.61.63.95.91q.48.5 1.05.91c1.34 1.2 1.67 1.6 3.4 2.51.27.17.55.29.88.46.06 0 .11.06.17.06a12 12 0 0 0 .78 3.02c.16.34.27.68.44 1.03.06.11.11.23.17.28q.33.67.67 1.26l.83 1.2c.28.34.61.74.94 1.08.34.34.67.63 1.06.97 0 0 .06.05.11.05q.5.45 1 .8.58.42 1.22.75.61.35 1.28.62.53.24 1.11.4c.06.06.12.06.23.12l.72.17c-.17 3.08-.22 5.99.22 7.01.5 1.14 2.95-2.34 5.4-6.33-.34 3.94-.56 8.56 0 9.93.6 1.42 3.94-3.03 6.83-7.93 39.4-9.36 75.37 18.6 79.15 58.06-.72-6.16-8.12-9.58-11.5-8.72-1.67 4.22-4.5 9.64-9.07 13 .4-3.76.23-7.64-.55-11.4a37 37 0 0 1-6.9 14.37 15.4 15.4 0 0 1-13.33-6.16c-.23-.17-.28-.52-.45-.74q-.26-.6-.44-1.2-.25-.6-.34-1.2-.06-.59-.05-1.25v-.86q.09-.6.28-1.2.14-.6.38-1.2c.23-.4.4-.8.67-1.2.95-2.73.95-4.96-.78-6.27q-.48-.33-1.05-.57l-.72-.23c-.17-.05-.28-.11-.45-.17a9 9 0 0 0-1.17-.28 4 4 0 0 0-1.16-.17 9 9 0 0 0-1.23-.12c-.27 0-.55.06-.83.06-.45 0-.83.06-1.22.17a8 8 0 0 0-2.34.63l-1.1.51c-.34.17-.68.4-1.07.57-12.95 8.67-5.22 28.98 3.62 34.85-3.34.63-6.73 1.37-7.67 2.11l-.11.12a52 52 0 0 0 7.5 3.82 186 186 0 0 0 9 2.74v.05q6.93 1.45 14.01 1.03c24.62-1.77 44.8-20.99 48.47-46.32l.33 1.49c.17 1.02.4 2.1.5 3.2v.05c.11.51.17 1.03.22 1.48v.23q.1.78.12 1.48.09.95.1 1.88v.92c0 .28.06.63.06.91 0 .34-.05.69-.05 1.03v.8c0 .4-.06.74-.06 1.14q.01.32-.05.74c0 .4-.06.8-.06 1.25q-.07.26-.06.52l-.16 1.3q.01.27-.06.52c-.05.57-.16 1.09-.22 1.66v.11l-.33 1.6v.17l-.34 1.54c0 .06-.05.17-.05.23q-.15.76-.4 1.54v.17q-.26.84-.44 1.6-.06.09-.05.1l-.5 1.72-.61 1.65c-.23.57-.4 1.15-.62 1.66l-.66 1.65h-.06c-.22.52-.44 1.09-.72 1.6q-.09.24-.17.4c-.05.06-.05.11-.1.17a54 54 0 0 1-15.63 19.16q-.66.45-1.33.97c-.11.12-.28.18-.39.29q-.57.42-1.22.85l.16.35h.06l2.33-.34h.06q2.16-.36 4.33-.8c.4-.06.84-.17 1.23-.29l.78-.17c.39-.06.77-.17 1.16-.23.34-.11.67-.17 1-.28a103 103 0 0 0 16.12-5.48A89.5 89.5 0 0 1 120.72 238a89 89 0 0 0 18.95-3.37 89.3 89.3 0 0 0 52.53-43.06 92 92 0 0 1-14.96 36.68 88 88 0 0 0 14.84-12.67 91.3 91.3 0 0 0 23.4-48.48 93 93 0 0 1 1.62 27.5c40.13-57.44 3.33-117-12.06-132.68-.06-.11-.12-.17-.12-.28-.05.05-.05.05-.05.1 0-.05 0-.05-.06-.1q-.01 1.02-.1 2.05a78 78 0 0 1-.56 3.82 93 93 0 0 1-.95 3.77 48 48 0 0 1-1.33 3.65 50 50 0 0 1-1.67 3.47 44 44 0 0 1-4.28 6.33 42 42 0 0 1-2.61 2.86c-.56.51-1.06.97-1.62 1.42l-1.27 1.14c-1 .8-2 1.54-3.12 2.23a38 38 0 0 1-3.28 1.94 95 95 0 0 1-3.5 1.6 39 39 0 0 1-7.33 2.05c-1.28.23-2.56.34-3.78.46q-1.34.1-2.67.11c-1.28 0-2.56-.11-3.78-.23a28 28 0 0 1-3.78-.57q-1.9-.36-3.72-.97h-.06a39.4 39.4 0 0 0 17.84-5.99q1.6-1.1 3.11-2.28 1.5-1.2 2.84-2.57c.94-.85 1.78-1.82 2.61-2.8a56 56 0 0 0 2.33-3.07c.12-.17.23-.4.34-.57q.85-1.37 1.61-2.74a40 40 0 0 0 3.95-10.84c.22-1.3.44-2.56.55-3.82.11-1.31.22-2.62.22-3.88q-.01-1.36-.1-2.73-.19-1.96-.45-3.83-.33-1.94-.83-3.82c-.4-1.2-.78-2.45-1.23-3.65s-1-2.4-1.55-3.54q-.9-1.73-1.9-3.36a63 63 0 0 0-2.22-3.14q-1.23-1.46-2.55-2.9c-.45-.46-.95-.98-1.45-1.43-2.5-2-5.11-3.88-7.72-5.6-.4-.22-.73-.4-1.12-.56a21 21 0 0 0-5.28-2.4"/></svg>
